X:1
T:A Hard Day's Night
C:John Lennon, Paul McCartney
Z:All Rights Reserved
L:1/8
M:4/4
K:G
V:1 treble 
V:1
"F" z4"^add9" z B cB |:S"G" d4"C" d3 d- |"G" d2 z2 z d dc |"F" d =f3- fd c(d/c/ | %4
w: It's been a|hard day's night|* and I've been|wor- king * like a dog *|
w: |work all day|* to get you|mo- ney to buy you things *|
"G" B2) z2 z B cB | d4"C" d3 d- |"G" d2 z2 z d dc |"F" d =f3- fd c(d/c/ |"G" B2) z2 z c d^d | %9
w: * It's been a|hard day's night|* I should be|sleep- ing * like a log *|* But when I|
w: * And it's *|worth~it just~to hear~you|say You're gon- na|give me * e- v'ry- thing *|* So why I|
"C" e^d=dc z e e=f |"D" f=fed z B cB |"G" (d G3)"C9" (_B c2) =B-!dacoda! |1"G" B2 z2 z B cB :|2 %13
w: get home to you I find the|things that you do Will make me|feel * al- * right.|* You know I|
w: love to come home 'Cause when I|get you a- lone You know I|Feel * O- * kay||
"G" z2 z2 d g2 f- |"Bm" f6 z2 ||"Em" gfee- efge |"Bm" f4 z4 | z4 d f2 g- |"G" g6 z2 | %19
w: When I'm home||Ev'- ry- thing seems * to be al-|right|When I'm home||
w: ||||||
"Em" gfee- ef g2 |"C" a4 z2 z (g |"D" a3) a- aBcB ||"G" d4"C" d3 d- |"G" d2 z2 z d dc | %24
w: feel- ing you hold- * ing me|tight tight|* Yeah * It's been a|hard day's night|* and I've been|
w: |||||
"F" d =f3- fd c(d/c/ |"G" B2) z2 z B cB | d4"C" d3 d- |"G" d2 z2 z c dc |"F" d =f3- f d2 c | %29
w: wor- king * like a dog *|* It's been a|hard day's night|* I should be|sleep- ing * like a|
w: |||||
"G" (d/c/B) z2 z e =f^f |"C" gf=fe z ^f g^g |"D" a^g=gf z B cB |"G" (d G3)"C9" (_B c2) B- | %33
w: log * * But when I|get home to you I find the|things that you do will make me|feel * al- * right|
w: ||||
"G" B2 z2"D" z4 |"G" G3 G"C7" _BcBd- |"G" d8 |"F" c/d/=f/c/ d/f/c/d/ f/c/d/f/ c/_B/G |"G" G8 | %38
w: |||||
w: |||||
 G3 G"C7" _BcBd- |"G" d8 |"F" c/d/=f/c/ d/f/c/d/ f/c/d/f/ c/_B/G |"G" G4 z e =f^f | %42
w: |||* So why I|
w: ||||
"C" gf=fe z ^f g^g |"D" a^g=gf z B cB |"G" (d G3)"C7" (_B c2) B- |"G" B2 z2 d g2 f- |"Bm" f6 z2 | %47
w: love to come home 'cause when I|get you a- lone You know I|feel * o- * kay|* When I'm home||
w: |||||
"Em" gfee- efge |"Bm" f4 z4 | z4 d f2 g- |"G" g6 z2 |"Em" gfee- ef g2 |"C" a4 z2 z (g | %53
w: Ev'- ry- thing seems * to be al-|right|When I'm home||feel- ing you hold- * ing me|tight tight|
w: ||||||
"D" a3) a- aBcB!D.S.! ||O"G" B2 z2 z B cB | d G3"C9" _B c2 ^A- |"G" A2 z2 z B cB | d4"C" d3 d- | %58
w: * Yeah * It's been a|* You know I|feel * al- * right|* you know I|feel al- right|
w: |||||
"F" d4"^add9" z4 |: GCA,C FCA,C | G,CA,C FCA,C :| %61
w: |||
w: |||

